X: 24855
T: Maggie's Pancakes
R: reel
M: 4/4
K: Dmajor
|:fB~B2 fgfe|dB~B2 GBdB|cAAd AAec|AfdB ecAc|
dB~B2 fgfe|dB~B2 GBdB|cABc AcBc|1 efec Bcde:|2 efec Bz3||
|:fBdB GBdB|caec dB~B2|fBdB GBdB|eaec Bcde|
fd~d2 fgfe|dB~B2 GBdB|cAdA eAce|afec Bcde:|

